www/assets/icons/volcano.svg

<svg width="24" height="24" viewBox="0 0 24 24" xmlns="http://www.w3.org/2000/svg" fill='currentColor'><path d="M18 8.5H11L9 13.5H6L2 22.5H22L18 8.5Z"/><path d="M15 1.5H13V5.5H15V1.5Z"/><path d="M18.9496 3.13989L16.1212 5.96829L17.5354 7.38249L20.3638 4.55409L18.9496 3.13989Z"/><path d="M9.05389 3.1361L7.63969 4.5503L10.4681 7.3787L11.8823 5.9645L9.05389 3.1361Z"/></svg>

<svg xmlns="http://www.w3.org/2000/svg" width="24" height="24" viewBox="0 0 24 24" fill='currentColor'><path d="M18 8.5h-7l-2 5H6l-4 9h20zm-3-7h-2v4h2zm3.95 1.64-2.83 2.828 1.414 1.414 2.829-2.828zm-9.896-.004L7.64 4.55l2.828 2.829 1.414-1.414z"/></svg>
